X:1
T:Ingratitudo
T:Ingratitudo
T:Anonymous
C:Anonymous
%%score [ 1 [ 2 3 ] ]
L:1/8
Q:1/4=120
M:2/2
K:F
V:1 treble nm="Soprano" snm="S"
V:2 treble-8 nm="Tenor 1" snm="T 1"
V:3 treble-8 nm="Tenor 2" snm="T 2"
V:1
 z8 | z8 | z8 | z8 | A4 F2 G2 | F2 D2 F2 G2 | A4 z2 GA | B2 B2 B2 AG | F4 z2 G2- | G2 G2 G2 FE | %10
w: ||||In- gra- ti-|tu- do se- qui-|tur la- *|bo- rem no- * *|strum, gra-|* ti- tu- do _|
 D2 B4 A2 |1 G4 z4 :|2"^Ad finem" B2 B2 B2 AG || F4 z2 G2- | G2 G2 G2 FE | D2 B4 A2 | G8 |] %17
w: (heu!) va- pu-|lat.|bo- rem no- * *|strum, gra-|* ti- tu- do _|(heu!) va- pu-|lat.|
V:2
 e4 c2 d2 | c2 A2 c2 d2 | e4 z2 de | f2 f2 f2 ed | c4 z2 d2- | d2 d2 d2 cB | A2 f4 e2 | d4 z4 | %8
w: In- gra- ti-|tu- do se- qui-|tur la- *|bo- rem no- * *|strum, gra-|* ti- tu- do _|(heu!) va- pu-|lat.|
 z8 | z8 | z8 |1 z8 :|2 d8- || d8- | d8- | d8- | d8 |] %17
w: ||||lat.|_||||
V:3
 z8 | z8 | A4 F2 G2 | F2 D2 F2 G2 | A4 z2 GA | B2 B2 B2 AG | F4 z2 G2- | G2 G2 G2 FE | D2 B4 A2 | %9
w: ||In gra- ti-|tu- do se- qui-|tur la- *|bo- rem no- * *|strum, gra-|* ti- tu- do _|(heu!) va- pu-|
 G4 z4 | z8 |1 z8 :|2 G2 G2 G2 FE || D2 B4 A2 | G8- | G8- | G8 |] %17
w: lat.|||* ti- tu- do _|(heu!) va- pu-|lat.|_||

